Obsidian-SemiLight/actions/22s/text_horz_kern.svg

<svg viewBox="0 0 22 22" xmlns="http://www.w3.org/2000/svg"><path d="m5 11a4 4 0 0 0 -4 4 4 4 0 0 0 4 4 4 4 0 0 0 3-1.361328v1.361328h1v-4-4h-1v1.361328a4 4 0 0 0 -3-1.361328zm8 0v4 4h1v-1.361328a4 4 0 0 0 3 1.361328 4 4 0 0 0 4-4 4 4 0 0 0 -4-4 4 4 0 0 0 -3 1.361328v-1.361328zm-8 1a3 3 0 0 1 3 3 3 3 0 0 1 -3 3 3 3 0 0 1 -3-3 3 3 0 0 1 3-3zm12 0a3 3 0 0 1 3 3 3 3 0 0 1 -3 3 3 3 0 0 1 -3-3 3 3 0 0 1 3-3z" fill="#4d4d4d"/><path d="m9 3-4 3 4 3zm4 0v6l4-3z" fill="#3daee9"/></svg>

<svg xmlns="http://www.w3.org/2000/svg" viewBox="0 0 22 22">
  <defs id="defs3051">
    <style type="text/css" id="current-color-scheme">
      .ColorScheme-Text {
        color:#4d4d4d;
      }
      .ColorScheme-Highlight {
        color:#3daee9;
      }
      </style>
  </defs>
 <path 
     style="fill:currentColor;fill-opacity:1;stroke:none" 
	d="M 5 11 A 4 4 0 0 0 1 15 A 4 4 0 0 0 5 19 A 4 4 0 0 0 8 17.638672 L 8 19 L 9 19 L 9 15 L 9 11 L 8 11 L 8 12.361328 A 4 4 0 0 0 5 11 z M 13 11 L 13 15 L 13 19 L 14 19 L 14 17.638672 A 4 4 0 0 0 17 19 A 4 4 0 0 0 21 15 A 4 4 0 0 0 17 11 A 4 4 0 0 0 14 12.361328 L 14 11 L 13 11 z M 5 12 A 3 3 0 0 1 8 15 A 3 3 0 0 1 5 18 A 3 3 0 0 1 2 15 A 3 3 0 0 1 5 12 z M 17 12 A 3 3 0 0 1 20 15 A 3 3 0 0 1 17 18 A 3 3 0 0 1 14 15 A 3 3 0 0 1 17 12 z "
        class="ColorScheme-Text"
     />
 <path 
     style="fill:currentColor;fill-opacity:1;stroke:none" 
	 d="M 9 3 L 5 6 L 9 9 L 9 3 z M 13 3 L 13 9 L 17 6 L 13 3 z "
       class="ColorScheme-Highlight"
     />
</svg>
